Liu-0706/Mycobot/flattened_data.csv
x_target,y_target,z_target,x_error,y_error,z_error,j1,j2,j3,j4,j5,j6
193.54451841829666,106.82219546120126,140,-0.444518418,0.9778045387987362,11.699999999999989,45.79,-24.87,-88.41,26.27,0.17,-44.29
193.9053335949428,93.22956807087559,140,4.894666405057222,3.470431929124416,11.400000000000006,39.99,-24.96,-88.41,26.27,0.7,-52.47
194.2661487715889,79.6369406805499,140,16.733851228411112,-13.63694068,11.400000000000006,31.81,-24.96,-88.41,26.27,0.52,-60.46
194.62696394823502,66.04431329022421,140,23.873036051764984,-28.34431329,7.199999999999989,24.69,-26.45,-88.41,27.77,1.05,-67.93
194.98777912488114,52.451685899898536,140,27.412220875118862,-42.6516859,8.099999999999994,17.05,-26.45,-88.41,27.94,0.79,-75.41
195.34859430152724,38.85905850957286,140,26.45140569847277,-57.95905851,8.099999999999994,9.66,-26.45,-88.41,27.94,0.79,-82.88
195.70940947817337,25.26643111924716,140,21.79059052182663,-72.76643112,8.099999999999994,1.93,-26.45,-88.41,27.94,0.79,-90.7
196.0702246548195,11.673803728921484,140,12.929775345180502,-88.37380373,8.099999999999994,-5.8,-26.45,-88.41,27.94,0.79,-97.11
196.4310398314656,-1.918823661,140,5.768960168534392,-91.18117634,8.099999999999994,-8.17,-26.45,-88.41,27.94,0.7,-97.03
196.79185500811172,-15.51145105,140,5.608144991888281,-77.38854895,7.5,-8.26,-26.63,-88.41,27.94,0.61,-97.64
197.15267018475785,-29.10407844,140,5.2473298152421535,-63.79592156,7.5,-8.26,-26.63,-88.41,27.94,0.61,-97.64
197.51348536140395,-42.69670583,140,4.886514638596054,-50.20329417,7.5,-8.26,-26.63,-88.41,27.94,0.61,-97.73
197.87430053805008,-56.28933322,140,4.425699461949932,-36.61066678,7.199999999999989,-8.26,-26.63,-88.76,28.38,0.61,-97.91
198.2351157146962,-69.88196061,140,4.264884285303793,-23.41803939,6.800000000000011,-8.34,-26.89,-88.85,29.09,0.61,-99.05
198.5959308913423,-83.474588,140,3.904069108657694,-9.825411997,6.800000000000011,-8.34,-26.89,-88.85,29.09,0.61,-99.14
201.79176400536488,93.9407295051179,140,1.008235994635129,0.059270494882099456,7.199999999999989,41.3,-27.07,-87.45,26.89,0.26,-48.77
201.12813761232374,81.50278330234778,140,6.771862387676265,-0.102783302,6.900000000000006,35.59,-27.07,-88.59,29.17,0.79,-56.6
200.4645112192826,69.06483709957766,140,16.635488780717395,-17.8648371,6.300000000000011,27.86,-27.07,-89.82,30.76,0.79,-64.07
199.80088482624146,56.62689089680753,140,21.59911517375855,-34.3268909,5.199999999999989,20.47,-27.07,-90.96,32.69,0.79,-71.54
199.13725843320032,44.18894469403741,140,22.662741566799696,-49.88894469,3.8000000000000114,13.18,-26.98,-92.1,34.01,0.87,-79.1
198.47363204015917,31.75099849126729,140,18.526367959840826,-66.75099849,4.699999999999989,5.18,-25.66,-93.6,34.1,0.87,-86.83
197.81000564711803,19.31305228849716,140,10.489994352881979,-83.91305229,4,-2.19,-25.13,-94.48,34.1,0.87,-94.3
197.1463792540769,6.87510608572704,140,2.3536207459231093,-94.27510609,5,-7.64,-24.87,-94.48,34.1,0.87,-96.15
196.48275286103572,-5.562840117,140,1.6172471389642737,-84.93715988,5,-7.82,-24.87,-94.48,34.1,0.87,-96.32
195.81912646799458,-18.00078632,140,2.2808735320054154,-72.49921368,5,-7.82,-24.87,-94.48,34.1,0.87,-96.59
195.15550007495344,-30.43873252,140,2.944499925046557,-60.06126748,5,-7.82,-24.87,-94.48,34.1,0.87,-96.59
194.4918736819123,-42.87667873,140,3.608126318087699,-47.62332127,5,-7.82,-24.87,-94.48,34.1,0.87,-96.85
193.82824728887115,-55.31462493,140,4.2717527111288405,-35.18537507,5,-7.82,-24.87,-94.57,34.1,0.87,-96.94
193.16462089583,-67.75257113,140,3.5353791041699765,-22.54742887,4.800000000000011,-7.82,-24.25,-95.36,34.1,0.87,-97.03
192.50099450278887,-80.19051733,140,4.199005497211118,-10.10948267,4.800000000000011,-7.82,-24.25,-95.36,34.1,0.79,-97.2
195.80017154434236,107.96945165872917,140,0.9998284556576493,0.23054834127083268,5.699999999999989,45.08,-28.03,-86.22,25.83,0.52,-45
196.05942935610946,93.66334039098611,140,5.840570643890544,4.63665960901389,5.800000000000011,40.51,-28.03,-86.22,26.27,1.4,-52.38
196.31868716787656,79.35722912324303,140,18.081312832123444,-7.057229123,5,32.87,-29.09,-86.22,28.21,1.4,-59.76
196.57794497964363,65.05111785549997,140,25.322055020356373,-19.75111786,5,25.66,-29.09,-86.22,28.21,1.4,-66.88
196.83720279141073,50.7450065877569,140,28.96279720858928,-34.04500659,4.900000000000006,18.45,-29.09,-86.22,28.21,1.4,-74
197.09646060317783,36.43889532001383,140,29.003539396822163,-46.93889532,4.900000000000006,11.6,-29.09,-86.22,28.21,1.49,-81.21
197.35571841494493,22.13278405227075,140,25.744281585055063,-60.23278405,4.900000000000006,4.3,-29.09,-86.22,28.21,1.49,-88.33
197.61497622671203,7.8266727845276876,140,18.585023773287958,-75.02667278,5,-3.16,-29.09,-86.22,28.3,1.49,-95.71
197.8742340384791,-6.479438483,140,8.725765961520892,-86.02056152,4.900000000000006,-9.4,-29.09,-86.22,28.21,1.49,-99.66
198.1334918502462,-20.78554975,140,4.466508149753793,-80.21445025,4.900000000000006,-10.54,-29.09,-86.22,28.21,1.49,-99.75
198.3927496620133,-35.09166102,140,4.207250337986693,-65.90833898,4.900000000000006,-10.54,-29.09,-86.22,28.21,1.49,-99.84
198.6520074737804,-49.39777229,140,4.047992526219588,-51.60222771,3.9000000000000057,-10.54,-29.44,-86.13,28.21,1.49,-100.1
198.9112652855475,-63.70388355,140,4.288734714452488,-37.39611645,4.199999999999989,-10.54,-29.53,-85.86,28.21,1.49,-100.72
199.17052309731457,-78.00999482,140,4.029476902685417,-23.09000518,4.199999999999989,-10.54,-29.53,-85.86,28.21,1.49,-100.89
199.42978090908167,-92.31610609,140,3.7702190909183173,-8.78389391,4.199999999999989,-10.54,-29.53,-85.86,28.21,1.49,-100.98
200.49723442492683,103.8666590730134,140,0.10276557507316397,-0.866659073,9.900000000000006,43.41,-27.5,-84.99,24.96,0.35,-46.49
200.79428567162415,90.10571312023411,140,4.505714328375859,3.2942868797658917,10,38.75,-27.68,-84.99,24.96,0.43,-53.43
201.09133691832147,76.34476716745482,140,16.408663081678526,-9.444767167,7.099999999999994,31.37,-29.17,-84.99,27.5,0.61,-60.73
201.38838816501882,62.58382121467553,140,22.811611834981164,-22.38382121,7.099999999999994,24.52,-29.17,-84.99,27.5,0.61,-67.85
201.68543941171615,48.82287526189625,140,25.914560588283848,-36.42287526,7.400000000000006,17.31,-29.17,-84.9,27.5,0.61,-74.97
201.98249065841347,35.06192930911696,140,25.417509341586538,-50.76192931,7.400000000000006,10.01,-29.17,-84.9,27.5,0.7,-82.52
202.2795419051108,21.300983356337667,140,21.120458094889216,-66.10098336,7.400000000000006,2.81,-29.17,-84.9,27.5,0.7,-89.64
202.5765931518081,7.540037403558387,140,13.523406848191883,-80.0400374,7.400000000000006,-4.39,-29.26,-84.9,27.5,0.7,-96.76
202.87364439850546,-6.220908549,140,6.426355601494549,-89.17909145,6.699999999999989,-9.31,-30.49,-83.32,27.5,0.87,-98.34
203.17069564520278,-19.9818545,140,4.92930435479721,-78.7181455,6.900000000000006,-9.58,-30.49,-83.32,27.5,0.87,-98.34
203.4677468919001,-33.74280045,140,4.6322531080998885,-64.95719955,6.900000000000006,-9.58,-30.49,-83.32,27.5,0.87,-98.52
203.76479813859743,-47.50374641,140,4.335201861402567,-51.19625359,6.900000000000006,-9.58,-30.49,-83.32,27.5,0.87,-98.7
204.06184938529475,-61.26469236,140,4.038150614705245,-37.43530764,6.5,-9.58,-30.58,-83.32,27.5,0.87,-98.87
204.3589006319921,-75.02563831,140,3.7410993680078946,-23.67436169,6.5,-9.58,-30.58,-83.32,27.5,0.87,-99.05
204.65595187868942,-88.78658427,140,3.4440481213105727,-9.913415734,6.5,-9.58,-30.58,-83.32,27.5,0.87,-99.14
202.592267269345,90.48408702013134,140,0.10773273065498756,-0.68408702,8.099999999999994,40.42,-26.45,-88.41,27.77,0.35,-49.57
202.94612110702064,77.18176436396811,140,5.553878892979355,2.018235636031889,7.099999999999994,34.98,-27.24,-88.33,28.47,1.05,-57.3
203.2999749446963,63.879441707804894,140,15.9000250553037,-13.07944171,5.099999999999994,27.15,-28.74,-87.27,29.97,1.14,-65.12
203.65382878237193,50.57711905164167,140,23.14617121762808,-27.17711905,5.400000000000006,19.77,-30.14,-85.6,29.97,1.14,-72.59
204.00768262004758,37.27479639547845,140,26.692317379952414,-42.7747964,5,12.21,-31.46,-83.84,29.97,1.14,-80.41
204.36153645772322,23.972473739315234,140,26.13846354227678,-60.07247374,4.400000000000006,4.83,-32.78,-82.17,29.97,1.23,-87.89
204.71539029539886,10.670151083151993,140,20.684609704601144,-76.47015108,5.199999999999989,-2.81,-33.04,-81.56,29.88,1.23,-95.18
205.0692441330745,-2.632171573,140,10.530755866925489,-92.36782843,6,-9.75,-33.48,-79.98,28.74,1.23,-99.75
205.42309797075012,-15.93449423,140,5.876902029249891,-90.06550577,6.5,-11.33,-33.57,-79.71,28.38,1.23,-99.66
205.77695180842576,-29.23681689,140,5.423048191574225,-76.76318311,6.300000000000011,-11.33,-33.57,-79.71,28.3,1.23,-99.84
206.1308056461014,-42.53913954,140,4.969194353898587,-63.46086046,6.199999999999989,-11.33,-33.57,-79.71,28.12,1.23,-100.01
206.48465948377705,-55.8414622,140,4.615340516222943,-50.0585378,6.099999999999994,-11.33,-33.57,-79.1,27.07,1.14,-100.19
206.8385133214527,-69.14378485,140,4.1614866785473055,-37.35621515,6.699999999999989,-11.42,-33.57,-78.48,25.92,0.96,-100.37
207.19236715912834,-82.44610751,140,3.807632840871662,-24.05389249,6.699999999999989,-11.42,-33.57,-78.48,25.92,0.96,-100.54
207.54622099680398,-95.74843017,140,3.4537790031960185,-10.75156983,6.699999999999989,-11.42,-33.57,-78.48,25.92,0.96,-100.63
202.33638093098867,93.43308312572935,140,-0.436380931,2.266916874270649,9,41.74,-26.63,-87.36,26.8,0.43,-48.95
202.82480837916347,80.44208677177193,140,5.575191620836534,4.257913228228077,6.800000000000011,36.47,-28.12,-87.36,29.17,0.87,-56.16
203.31323582733827,67.45109041781451,140,15.186764172661725,-11.15109042,6,28.47,-28.47,-87.36,29.53,0.87,-63.8
203.80166327551308,54.46009406385709,140,22.19833672448692,-26.66009406,5,21.18,-29.88,-85.78,29.61,1.14,-71.19
204.29009072368788,41.46909770989967,140,25.609909276312123,-42.26909771,4.699999999999989,13.71,-31.02,-84.37,29.61,1.14,-78.57
204.7785181718627,28.478101355942258,140,25.221481828137314,-58.17810136,4.400000000000006,6.5,-31.99,-83.14,29.61,1.23,-85.95
205.2669456200375,15.48710500198483,140,20.033054379962522,-74.087105,4.400000000000006,-0.79,-32.25,-82.7,29.61,1.23,-93.33
205.7553730682123,2.496108648027416,140,11.544626931787718,-88.69610865,5.800000000000011,-7.55,-32.6,-82.08,29.61,1.23,-97.64
206.2438005163871,-10.49488771,140,7.5561994836129145,-85.70511229,6.199999999999989,-8.78,-32.69,-81.47,29.26,1.23,-97.64
206.7322279645619,-23.48588406,140,6.967772035438088,-72.71411594,5.900000000000006,-8.78,-32.69,-81.38,29.17,1.23,-97.55
207.2206554127367,-36.47688041,140,6.579344587263307,-59.72311959,6,-8.78,-32.69,-81.38,29.09,1.23,-97.82
207.7090828609115,-49.46787677,140,5.990917139088481,-46.73212323,5.900000000000006,-8.78,-32.69,-81.38,28.91,1.14,-97.99
208.1975103090863,-62.45887312,140,5.8024896909136885,-33.94112688,6.699999999999989,-8.78,-32.69,-80.06,26.8,0.87,-98.34
208.68593775726112,-75.44986948,140,5.2140622427388905,-21.05013052,6.599999999999994,-8.78,-32.69,-80.06,26.63,0.79,-98.34
209.17436520543592,-88.44086583,140,4.6256347945640925,-8.05913417,6.5,-8.78,-32.69,-80.06,26.63,0.79,-98.52
191.4102514370456,108.9204052910662,140,0.4897485629544178,0.2795947089338,7.699999999999989,46.23,-26.01,-89.47,28.74,0.35,-43.94
191.87335513853887,95.2510663509864,140,6.526644861461136,4.748933649013594,7.099999999999994,41.3,-26.45,-89.47,29.44,0.79,-50.97
192.33645884003218,81.58172741090661,140,17.263541159967815,-7.881727411,7.099999999999994,33.83,-26.45,-89.47,29.44,0.79,-58.09
192.79956254152546,67.9123884708268,140,24.50043745847455,-21.51238847,7.099999999999994,26.71,-26.45,-89.47,29.44,0.79,-65.21
193.26266624301874,54.243049530747,140,28.137333756981263,-34.74304953,7.099999999999994,19.59,-26.45,-89.47,29.44,0.79,-72.24
193.72576994451205,40.573710590667204,140,28.374230055487942,-48.87371059,7.099999999999994,12.48,-26.45,-89.47,29.44,0.79,-79.54
194.18887364600533,26.904371650587393,140,25.111126353994678,-63.00437165,7.099999999999994,5.18,-26.45,-89.47,29.44,0.79,-86.92
194.65197734749862,13.235032710507596,140,18.24802265250139,-76.93503271,7.099999999999994,-2.02,-26.45,-89.47,29.44,0.79,-94.04
195.11508104899193,-0.43430623,140,9.084918951008063,-87.26569377,7.099999999999994,-7.73,-26.45,-89.47,29.44,0.87,-96.85
195.5781847504852,-14.10364517,140,6.221815249514805,-78.79635483,7.099999999999994,-8.34,-26.45,-89.47,29.44,0.87,-96.94
196.0412884519785,-27.77298411,140,5.758711548021523,-65.12701589,7.099999999999994,-8.34,-26.45,-89.47,29.44,0.87,-97.11
196.5043921534718,-41.44232305,140,5.295607846528213,-51.45767695,7.099999999999994,-8.34,-26.45,-89.47,29.44,0.87,-97.29
196.96749585496508,-55.11166199,140,4.832504145034932,-37.78833801,7.099999999999994,-8.34,-26.45,-89.47,29.44,0.87,-97.38
197.43059955645836,-68.78100093,140,4.36940044354165,-24.11899907,7.099999999999994,-8.34,-26.45,-89.47,29.44,0.79,-97.64
197.89370325795167,-82.45033987,140,3.9062967420483403,-10.54966013,7.099999999999994,-8.34,-26.45,-89.47,29.44,0.79,-97.73
199.59531756752136,97.72735227341606,140,0.9046824324786371,0.872647726583935,7.800000000000011,42.62,-26.89,-87.62,27.24,0.17,-47.63
199.60894682958192,84.054141171726,140,5.691053170418087,4.245858828273995,6.900000000000006,37.79,-27.59,-87.62,28.21,1.66,-55.1
199.62257609164251,70.38093007003594,140,16.577423908357474,-8.08093007,5.199999999999989,30.23,-28.56,-87.62,29.61,1.75,-62.49
199.63620535370308,56.70771896834587,140,22.96379464629692,-21.90771897,5,23.02,-28.56,-87.62,29.79,1.75,-69.6
199.64983461576367,43.03450786665582,140,26.350165384236334,-35.43450787,5.800000000000011,15.99,-29.17,-86.74,29.79,1.75,-76.64
199.66346387782423,29.361296764965758,140,26.936536122175767,-49.86129676,5,8.96,-29.61,-86.22,29.79,1.75,-83.84
199.67709313988482,15.688085663275686,140,22.722906860115188,-63.78808566,5,1.84,-29.61,-86.22,29.79,1.75,-90.96
199.69072240194538,2.0148745615856285,140,14.909277598054615,-77.61487456,5,-5.44,-29.61,-86.22,29.79,1.84,-97.99
199.70435166400597,-11.65833654,140,5.095648335994042,-87.34166346,5,-10.54,-29.61,-86.04,29.79,1.84,-99.84
199.71798092606653,-25.33154764,140,4.0820190739334805,-76.26845236,5.5,-10.72,-29.61,-86.04,29.79,1.84,-99.93
199.73161018812712,-39.00475874,140,4.0683898118728905,-62.59524126,5.5,-10.72,-29.61,-86.04,29.79,1.75,-100.1
199.74523945018768,-52.67796985,140,4.054760549812329,-49.02203015,5.5,-10.72,-29.61,-86.04,29.79,1.75,-100.19
199.75886871224827,-66.35118095,140,4.041131287751739,-35.34881905,5.5,-10.72,-29.61,-86.04,29.79,1.66,-100.45
199.77249797430883,-80.02439205,140,4.127502025691172,-21.77560795,5.800000000000011,-10.72,-29.61,-85.51,28.91,1.49,-100.54
199.78612723636942,-93.69760315,140,4.113872763630582,-8.40239685,6,-10.72,-29.61,-85.34,28.65,1.23,-101.07
209.05181752441678,102.41808371991544,140,1.1481824755832122,-0.81808372,9.099999999999994,41.48,-31.72,-78.66,22.67,0.35,-48.33
208.28786771085646,88.56639197561495,140,5.912132289143528,4.133608024385055,8.5,37.35,-31.72,-80.41,25.57,0.79,-55.54
207.52391789729617,74.71470023131445,140,16.176082102703816,-9.814700231,7.199999999999989,30.05,-31.72,-81.12,26.71,0.79,-62.75
206.75996808373586,60.863008487013964,140,23.040031916264155,-25.06300849,6.199999999999989,22.76,-31.72,-82.61,29,0.79,-70.13
205.99601827017554,47.011316742713475,140,26.00398172982446,-41.11131674,5.099999999999994,15.46,-31.72,-83.67,30.05,0.87,-77.69
205.23206845661525,33.159624998412994,140,24.967931543384736,-56.459625,3.8000000000000114,8.08,-31.55,-84.81,31.37,0.87,-85.16
204.46811864305494,19.307933254112484,140,18.731881356945053,-73.80793325,3.5,0.08,-30.84,-85.86,31.46,0.96,-92.98
203.70416882949462,5.456241509812003,140,10.495831170505369,-87.55624151,3.4000000000000057,-6.85,-30.84,-86.04,31.55,1.66,-99.4
202.94021901593433,-8.395450234,140,3.559780984065668,-91.10454977,3.1999999999999886,-10.1,-30.84,-86.04,31.55,1.66,-99.93
202.17626920237402,-22.24714198,140,4.22373079762599,-77.55285802,3.1999999999999886,-10.1,-30.84,-86.04,31.55,1.66,-99.93
201.4123193888137,-36.09883372,140,4.987680611186306,-63.70116628,3.1999999999999886,-10.1,-30.84,-86.04,31.55,1.66,-99.93
200.6483695752534,-49.95052547,140,5.751630424746594,-49.84947453,3.1999999999999886,-10.1,-30.84,-86.04,31.55,1.66,-100.01
199.8844197616931,-63.80221721,140,6.51558023830691,-35.99778279,3.1999999999999886,-10.1,-30.58,-86.04,31.55,1.66,-100.19
199.12046994813278,-77.65390896,140,3.5795300518672093,-24.04609104,4.5,-11.07,-29.26,-87.89,31.46,1.49,-100.19
198.3565201345725,-91.5056007,140,2.843479865427497,-11.8943993,3.5999999999999943,-11.25,-29.26,-87.97,31.46,1.49,-100.19
204.6255407761794,108.62420225859378,140,1.0744592238205826,0.675797741406214,7.400000000000006,43.68,-31.72,-80.06,24.52,0.35,-46.58
204.88719309476156,94.95164595828095,140,6.012806905238449,2.948354041719057,6.400000000000006,38.49,-31.72,-81.29,26.27,1.05,-54.4
205.14884541334368,81.27908965796811,140,16.85115458665632,-13.47908966,5.599999999999994,30.84,-31.72,-81.65,26.63,1.05,-61.78
205.41049773192583,67.60653335765527,140,23.489502268074176,-28.60653336,5.699999999999989,23.55,-31.72,-81.65,26.63,1.05,-69.25
205.67215005050795,53.93397705734243,140,26.327849949492048,-44.63397706,5.699999999999989,15.55,-31.72,-81.65,26.63,1.05,-77.16
205.9338023690901,40.2614207570296,140,25.066197630909897,-63.56142076,5.699999999999989,7.82,-31.72,-81.65,26.63,1.05,-84.9
206.19545468767222,26.58886445671675,140,19.804545312327775,-79.68886446,5.699999999999989,0.52,-31.72,-81.65,26.63,1.14,-92.28
206.45710700625438,12.916308156403915,140,10.842892993745636,-94.61630816,5.699999999999989,-6.41,-31.72,-81.65,26.63,1.14,-96.59
206.7187593248365,-0.756248144,140,6.781240675163502,-90.54375186,5.699999999999989,-7.55,-31.72,-81.65,26.63,1.14,-96.67
206.98041164341865,-14.42880444,140,6.519588356581352,-76.87119556,5.699999999999989,-7.55,-31.72,-81.65,26.63,1.14,-96.85
207.24206396200077,-28.10136074,140,6.2579360379992295,-63.19863926,5.699999999999989,-7.55,-31.72,-81.65,26.63,1.14,-97.03
207.50371628058292,-41.77391704,140,5.996283719417079,-49.52608296,5.699999999999989,-7.55,-31.72,-81.65,26.63,1.14,-97.2
207.76536859916504,-55.44647335,140,5.734631400834957,-35.85352665,5.699999999999989,-7.55,-31.72,-81.65,26.63,1.14,-97.38
208.0270209177472,-69.11902965,140,5.472979082252806,-22.18097035,5.699999999999989,-7.55,-31.72,-81.65,26.63,1.14,-97.38
208.28867323632932,-82.79158595,140,5.211326763670684,-8.508414054,5.699999999999989,-7.55,-31.72,-81.73,26.63,1.14,-97.64
204.01920755566135,96.303686504353,140,0.9807924443386469,0.09631349564700997,7.900000000000006,41.48,-28.3,-85.34,26.36,-0.61,-48.33
203.73642391499186,83.85007722236996,140,5.063576085008151,3.0499227776300444,7.900000000000006,37,-28.3,-85.69,26.71,1.66,-55.72
203.45364027432234,71.39646794038693,140,13.24635972567765,-10.09646794,6.599999999999994,29.61,-28.3,-87.27,29.26,3.33,-62.92
203.17085663365285,58.9428586584039,140,19.22914336634716,-24.94285866,6.199999999999989,22.5,-28.3,-87.36,29.35,3.42,-70.04
202.88807299298333,46.489249376420865,140,21.21192700701667,-40.18924938,4.599999999999994,15.46,-28.3,-88.85,31.02,3.42,-77.34
202.60528935231383,34.03564009443784,140,20.494710647686162,-55.13564009,4.400000000000006,8.52,-28.3,-89.2,31.28,3.51,-84.46
202.3225057116443,21.582030812454803,140,15.677494288355689,-69.88203081,3.0999999999999943,1.49,-28.21,-90,32.34,3.51,-91.66
202.03972207097482,9.128421530471769,140,8.360277929025187,-83.72842153,3.0999999999999943,-5,-28.21,-90,32.34,3.51,-95.62
201.7569384303053,-3.325187752,140,5.243061569694703,-80.27481225,3.0999999999999943,-6.32,-28.21,-90,32.34,3.51,-95.88
201.4741547896358,-15.77879703,140,5.425845210364201,-68.12120297,3.0999999999999943,-6.32,-28.21,-90,32.34,3.51,-95.97
201.19137114896628,-28.23240632,140,5.708628851033723,-55.66759368,3.0999999999999943,-6.32,-28.21,-90,32.34,3.51,-95.97
200.9085875082968,-40.6860156,140,5.991412491703215,-43.2139844,3.0999999999999943,-6.32,-28.21,-90,32.34,3.51,-96.06
200.62580386762727,-53.13962488,140,6.274196132372737,-30.76037512,3.0999999999999943,-6.32,-28.21,-90,32.34,3.51,-96.15
200.34302022695778,-65.59323416,140,6.5569797730422295,-18.40676584,3.0999999999999943,-6.32,-28.21,-90,32.34,3.33,-96.32
200.06023658628826,-78.04684344,140,6.839763413711751,-5.953156557,3.0999999999999943,-6.32,-28.21,-90,32.34,3.33,-96.5
194.55861032204677,104.54078437470113,140,0.14138967795321378,-0.840784375,9.199999999999989,44.64,-25.57,-88.68,26.71,0.35,-45.26
194.266409818181,90.53037484043035,140,5.633590181819017,4.869625159569651,9.099999999999994,40.07,-25.66,-88.76,27.07,0.61,-52.29
193.9742093143152,76.51996530615958,140,16.025790685684797,-8.719965306,7.300000000000011,32.6,-25.66,-90.61,29.53,0.61,-59.5
193.68200881044942,62.5095557718888,140,23.117991189550594,-21.30955577,7.300000000000011,25.48,-25.66,-90.7,29.97,0.61,-66.7
193.3898083065836,48.49914623761803,140,26.910191693416408,-34.79914624,7.300000000000011,18.36,-25.66,-90.7,29.97,0.61,-73.74
193.09760780271782,34.48873670334726,140,26.902392197282182,-47.4887367,6.900000000000006,11.33,-25.57,-91.23,30.58,0.61,-80.94
192.80540729885203,20.478327169076465,140,23.794592701147963,-60.97832717,6.900000000000006,,,,,,
192.51320679498625,6.467917634805687,140,17.38679320501376,-73.56791763,6.900000000000006,-2.98,-25.57,-91.23,30.58,0.61,-95.18
192.22100629112046,-7.542491899,140,7.27899370887954,-85.9575081,6.900000000000006,-9.84,-25.57,-91.23,30.58,0.61,-99.75
191.92880578725467,-21.55290143,140,3.0711942127453256,-81.04709857,6.900000000000006,-11.16,-25.57,-91.23,30.58,0.61,-99.75
191.6366052833889,-35.56331097,140,3.3633947166111113,-67.03668903,6.900000000000006,-11.16,-25.57,-91.23,30.58,0.61,-100.01
191.3444047795231,-49.5737205,140,3.655595220476897,-53.0262795,6.900000000000006,-11.16,-25.57,-91.23,30.58,0.61,-100.01
191.0522042756573,-63.58413004,140,3.347795724342717,-38.81586996,5.699999999999989,-11.16,-25.48,-91.66,30.58,0.61,-100.19
190.7600037717915,-77.59453957,140,3.6399962282085028,-24.80546043,6,-11.16,-25.48,-91.66,30.58,0.61,-100.28
190.46780326792572,-91.60494911,140,3.9321967320742885,-10.79505089,6,-11.16,-25.48,-91.66,30.58,0.61,-100.45
209.01259384438518,109.16537955379454,140,1.6874061556148092,-0.065379554,6.699999999999989,42.8,-34.18,-76.2,22.32,0.35,-47.02
208.69167002357298,95.40232123080018,140,5.908329976427012,4.397678769199814,4.900000000000006,38.67,-34.18,-77.95,24.96,2.02,-54.49
208.37074620276076,81.63926290780583,140,15.129253797239244,-5.639262908,3.9000000000000057,31.81,-34.18,-79.27,27.24,2.54,-61.34
208.04982238194856,67.87620458481148,140,23.050177618051436,-21.47620458,2.9000000000000057,24.78,-34.18,-80.59,29.09,2.54,-68.55
207.72889856113633,54.11314626181713,140,26.07110143886368,-35.71314626,3.5999999999999943,17.84,-33.04,-82.17,29.7,2.54,-75.58
207.40797474032414,40.35008793882278,140,24.19202525967586,-52.95008794,3.3000000000000114,10.37,-31.9,-83.58,29.7,2.54,-82.79
207.0870509195119,26.587029615828413,140,18.91294908048809,-69.38702962,2.9000000000000057,3.07,-31.37,-84.63,29.7,2.54,-90
206.7661270986997,12.82397129283406,140,12.433872901300276,-81.82397129,2.6999999999999886,-3.86,-31.37,-84.63,29.7,2.63,-96.76
206.4452032778875,-0.93908703,140,5.554796722112513,-87.96091297,2.6999999999999886,-7.55,-31.37,-84.63,29.7,2.63,-97.47
206.1242794570753,-14.70214535,140,5.375720542924711,-75.19785465,2.6999999999999886,-7.55,-31.37,-84.63,29.7,2.63,-97.55
205.80335563626306,-28.46520368,140,5.696644363736937,-61.43479632,2.6999999999999886,-7.55,-31.28,-84.63,29.7,2.63,-97.55
205.48243181545087,-42.228262,140,5.717568184549123,-47.771738,3.1999999999999886,-7.55,-30.93,-84.99,29.7,2.28,-97.64
205.16150799463864,-55.99132032,140,5.438492005361354,-34.00867968,3.1999999999999886,-7.55,-30.84,-85.16,29.7,2.28,-97.64
204.84058417382644,-69.75437865,140,5.7594158261735515,-20.24562135,3.1999999999999886,-7.55,-30.84,-85.16,29.7,2.28,-97.64
204.51966035301422,-83.51743697,140,5.580339646985777,-7.882563032,3.1999999999999886,-8.17,-30.84,-85.16,29.7,2.19,-97.91
203.30586346817034,99.35746818978987,140,2.094136531829662,1.14253181021013,9.199999999999989,42.18,-29.09,-83.93,26.54,-0.08,-47.9
203.49153354768399,85.50144693920913,140,5.90846645231602,5.898553060790874,9.199999999999989,37.79,-29.35,-83.93,26.54,0.79,-54.93
203.67720362719766,71.6454256886284,140,16.42279637280234,-6.545425689,6.5,30.49,-30.49,-83.93,28.03,1.4,-62.13
203.8628737067113,57.78940443804767,140,23.537126293288708,-21.28940444,5.099999999999994,23.02,-31.2,-83.84,29.09,1.49,-69.69
204.04854378622494,43.93338318746694,140,27.851456213775066,-35.73338319,5.599999999999994,15.73,-31.64,-83.14,29.44,1.49,-77.08
204.23421386573858,30.077361936886206,140,27.26578613426142,-51.97736194,6.300000000000011,8.17,-31.99,-82.7,29.44,1.49,-84.28
204.41988394525225,16.221340686305467,140,24.680116054747742,-66.82134069,5.800000000000011,1.14,-32.87,-81.29,29.44,1.49,-91.4
204.6055540247659,2.365319435724743,140,16.094445975234095,-82.36531944,6.099999999999994,-6.67,-32.87,-81.29,29.44,1.49,-99.05
204.79122410427954,-11.49070181,140,6.408775895720453,-91.10929819,6.099999999999994,-10.81,-32.87,-81.29,29.44,1.49,-99.66
204.97689418379318,-25.34672307,140,5.723105816206811,-78.25327693,6.099999999999994,-10.81,-32.87,-81.29,29.44,1.4,-99.75
205.16256426330685,-39.20274432,140,5.537435736693141,-64.39725568,6.099999999999994,-10.81,-32.87,-81.29,29.44,1.4,-99.75
205.3482343428205,-53.05876557,140,5.551765657179516,-50.54123443,6.599999999999994,-10.81,-32.87,-80.5,28.38,1.23,-100.1
205.53390442233413,-66.91478682,140,5.466095577665868,-36.98521318,7,-10.81,-32.87,-80.24,27.86,1.05,-100.19
205.71957450184777,-80.77080807,140,5.280425498152226,-23.12919193,7,-10.81,-32.87,-80.24,27.86,1.05,-100.28
205.90524458136144,-94.62682932,140,4.994755418638562,-9.273170682,6.900000000000006,-10.81,-32.87,-80.24,27.77,1.05,-100.45
208.55161751213979,102.00842517584852,140,1.0483824878602093,-0.408425176,10,41.57,-31.2,-79.62,23.73,0.35,-48.33
208.13948894493078,87.95077232101893,140,5.960511055069219,2.4492276789810745,8.5,36.73,-31.2,-80.85,25.48,0.61,-55.72
207.72736037772177,73.89311946618936,140,16.67263962227824,-13.59311947,8.199999999999989,28.65,-31.2,-81.47,26.45,0.61,-63.45
207.31523181051276,59.83546661135978,140,23.08476818948725,-30.33546661,8,21,-31.2,-81.47,26.45,0.61,-71.19
206.90310324330372,45.7778137565302,140,25.396896756696293,-46.67781376,8,13.35,-31.11,-81.47,26.45,0.61,-79.01
206.4909746760947,31.720160901700623,140,23.50902532390529,-64.2201609,8.400000000000006,5.88,-31.11,-81.47,26.45,0.61,-86.48
206.0788461088857,17.66250804687104,140,18.12115389111429,-78.36250805,8.400000000000006,-1.23,-31.11,-81.47,26.45,0.7,-93.69
205.6667175416767,3.6048551920414553,140,9.233282458323316,-91.60485519,8.400000000000006,-8.26,-31.11,-81.56,26.45,0.7,-99.84
205.25458897446768,-10.45279766,140,1.4454110255323087,-94.24720234,7.400000000000006,-11.25,-31.11,-81.82,26.45,0.79,-100.01
204.84246040725867,-24.51045052,140,1.757539592741324,-80.58954948,7.400000000000006,-11.25,-31.11,-81.82,26.45,0.79,-100.1
204.43033184004966,-38.56810337,140,2.1696681599503336,-66.53189663,7.400000000000006,-11.25,-31.11,-81.82,26.45,0.79,-100.37
204.01820327284065,-52.62575623,140,2.581796727159343,-52.47424377,7.400000000000006,-11.25,-31.11,-81.82,26.45,0.79,-100.45
203.6060747056316,-66.68340908,140,2.993925294368381,-38.41659092,7.400000000000006,-11.25,-31.11,-81.82,26.45,0.79,-100.72
203.1939461384226,-80.74106194,140,3.206053861577402,-24.25893806,7,-11.25,-31.11,-82,26.54,0.79,-100.72
202.7818175712136,-94.79871479,140,3.6181824287864117,-10.20128521,7,-11.25,-31.11,-82,26.54,0.79,-100.89
197.1597400702969,105.7357905557822,140,0.5402599297030974,-1.435790556,7.5,44.2,-27.07,-86.74,25.66,0.35,-45.61
197.2521323051424,92.43772816361223,140,4.947867694857592,3.462271836387771,8,39.63,-27.07,-87.62,27.59,0.79,-53.52
197.3445245399879,79.13966577144228,140,15.755475460012093,-12.23966577,6.900000000000006,31.9,-27.07,-88.68,29.09,0.79,-60.99
197.4369167748334,65.8416033792723,140,22.263083225166582,-27.34160338,6.199999999999989,24.6,-27.07,-89.38,29.7,0.79,-68.46
197.5293090096789,52.54354098710235,140,24.870690990321094,-42.44354099,5.400000000000006,17.22,-27.07,-89.82,30.58,0.79,-75.93
197.62170124452442,39.24547859493238,140,24.27829875547559,-57.74547859,5.400000000000006,9.93,-27.07,-89.82,30.58,0.87,-83.4
197.71409347936992,25.947416202762412,140,19.985906520630067,-72.7474162,5.400000000000006,2.1,-27.07,-89.82,30.58,0.87,-91.23
197.80648571421543,12.649353810592444,140,11.393514285784562,-88.94935381,5.400000000000006,-5.36,-27.07,-89.82,30.58,0.87,-96.24
197.89887794906096,-0.648708582,140,6.701122050939034,-87.05129142,5.400000000000006,-6.85,-27.07,-89.82,30.58,0.87,-96.32
197.99127018390647,-13.94677097,140,6.608729816093529,-73.75322903,5.400000000000006,-6.85,-27.07,-89.82,30.58,0.87,-96.59
198.08366241875197,-27.24483337,140,6.516337581248024,-60.45516663,5.400000000000006,-6.85,-27.07,-89.82,30.58,0.87,-96.67
198.17605465359748,-40.54289576,140,6.423945346402519,-47.15710424,5.400000000000006,-6.85,-27.07,-89.82,30.58,0.87,-96.85
198.26844688844298,-53.84095815,140,6.331553111557014,-33.85904185,5.400000000000006,-6.85,-27.07,-89.82,30.58,0.87,-97.03
198.36083912328849,-67.13902054,140,6.239160876711509,-20.56097946,5.400000000000006,-6.85,-27.07,-89.82,30.58,0.87,-97.11
198.453231358134,-80.43708293,140,6.046768641866009,-7.562917065,5.400000000000006,-6.94,-27.07,-89.82,30.58,0.87,-97.29
197.3954663706721,108.78559611071708,140,0.20453362932789787,0.014403889282917248,9.199999999999989,45.08,-27.68,-85.16,25.22,0.35,-45
197.57491918514492,94.45669476340146,140,5.72508081485509,5.9433052365985475,7.800000000000011,40.6,-28.65,-85.16,26.89,0.79,-52.11
197.75437199961772,80.12779341608585,140,16.845628000382277,-6.227793416,7.900000000000006,33.13,-28.65,-85.16,26.98,0.79,-59.15
197.93382481409054,65.79889206877023,140,24.36617518590947,-19.69889207,7.900000000000006,26.01,-28.65,-85.16,26.98,0.79,-66.44
198.11327762856334,51.469990721454614,140,28.186722371436673,-33.26999072,7.900000000000006,18.89,-28.65,-85.16,26.98,0.79,-73.56
198.29273044303616,37.141089374139,140,28.50726955696385,-47.04108937,7.900000000000006,11.77,-28.65,-85.16,26.98,0.79,-80.77
198.472183257509,22.812188026823378,140,26.127816742491007,-59.91218803,6.900000000000006,4.92,-29.17,-85.07,27.68,0.87,-87.97
198.65163607198178,8.48328667950777,140,19.548363928018205,-73.78328668,7.199999999999989,-2.63,-29.17,-85.07,27.77,0.87,-95.09
198.8310888864546,-5.845614668,140,9.568911113545397,-86.05438533,7.199999999999989,-9.22,-29.17,-85.07,27.77,0.87,-99.31
199.0105417009274,-20.17451602,140,4.7894582990726065,-81.52548398,7.199999999999989,-10.54,-29.17,-85.07,27.77,0.87,-99.4
199.18999451540023,-34.50341736,140,4.610005484599782,-67.19658264,7.199999999999989,-10.54,-29.17,-85.07,27.77,0.87,-99.58
199.36944732987305,-48.83231871,140,4.430552670126957,-52.86768129,7.199999999999989,-10.54,-29.17,-85.07,27.77,0.87,-99.75
199.54890014434585,-63.16122006,140,4.251099855654161,-38.53877994,7.199999999999989,-10.54,-29.17,-85.07,27.77,0.87,-99.84
199.72835295881868,-77.4901214,140,4.071647041181336,-24.2098786,7.199999999999989,-10.54,-29.17,-85.07,27.77,0.87,-100.1
199.90780577329147,-91.81902275,140,3.992194226708534,-9.880977248,5.900000000000006,-10.54,-29.53,-85.07,27.77,0.87,-100.72
200.3601146482318,96.95327102509633,140,-0.160114648,-1.553271025,8.699999999999989,42.01,-26.27,-87.71,26.54,0.35,-47.9
199.8696423450447,84.09147572122312,140,5.930357654955316,1.3085242787768863,9.300000000000011,37.17,-26.27,-87.8,26.8,0.61,-55.54
199.3791700418576,71.2296804173499,140,15.120829958142394,-13.22968042,7.900000000000006,29.7,-26.27,-89.64,29.53,0.7,-62.66
198.88869773867052,58.36788511347668,140,21.21130226132948,-28.86788511,7.599999999999994,22.23,-26.27,-90.08,29.97,0.7,-70.13
198.39822543548343,45.50608980960347,140,23.00177456451658,-43.40608981,6.099999999999994,15.38,-26.27,-91.23,31.72,0.7,-77.34
197.90775313229634,32.64429450573026,140,21.592246867703665,-57.24429451,5.199999999999989,8.34,-26.27,-92.02,32.78,0.79,-84.63
197.41728082910925,19.782499201857036,140,16.98271917089076,-71.2824992,4.900000000000006,1.23,-26.19,-92.46,33.31,0.87,-91.75
196.92680852592216,6.920703897983827,140,9.47319147407785,-84.6207039,4.900000000000006,-5.71,-26.19,-92.46,33.31,0.87,-96.94
196.4363362227351,-5.941091406,140,3.863663777264918,-85.45890859,4.099999999999994,-8.08,-26.19,-92.81,33.39,0.87,-96.94
195.945863919548,-18.80288671,140,4.054136080451997,-72.89711329,4,-8.08,-26.19,-92.81,33.39,0.87,-97.2
195.4553916163609,-31.66468201,140,4.544608383639087,-60.03531799,4,-8.08,-26.19,-92.81,33.39,0.87,-97.2
194.96491931317382,-44.52647732,140,5.035080686826177,-47.17352268,4.300000000000011,-8.08,-26.01,-92.81,33.39,0.87,-97.55
194.47444700998673,-57.38827262,140,5.525552990013267,-34.31172738,5.300000000000011,-8.08,-25.83,-92.81,33.39,0.87,-97.99
193.98397470679964,-70.25006793,140,6.016025293200357,-21.44993207,5.300000000000011,-8.08,-25.83,-92.81,33.39,0.87,-97.99
193.49350240361255,-83.11186323,140,6.506497596387447,-8.588136771,5.300000000000011,-8.08,-25.83,-92.81,33.39,0.87,-97.99
209.16451626148142,91.69187381200365,140,1.6354837385185874,-0.591873812,6.199999999999989,39.28,-30.41,-82.17,24.34,0.52,-50.62
209.00975143194376,78.77168029927702,140,5.890248568056251,1.9283197007229802,6.5,34.45,-30.49,-82.17,24.78,1.58,-58.44
208.85498660240611,65.8514867865504,140,15.345013397593874,-14.95148679,6.699999999999989,26.27,-30.49,-82.17,24.96,1.58,-66.26
208.70022177286845,52.931293273823755,140,20.39977822713155,-33.33129327,6.699999999999989,18.54,-30.49,-82.17,24.96,1.58,-74
208.54545694333078,40.01109976109713,140,21.154543056669212,-50.71109976,6.699999999999989,11.16,-30.84,-82.17,25.04,1.58,-81.47
208.3906921137931,27.0909062483705,140,19.609307886206892,-66.29090625,5.199999999999989,4.04,-31.46,-82.17,26.63,1.66,-88.94
208.23592728425547,14.17071273564386,140,12.664072715744538,-82.67071274,5.199999999999989,-3.51,-31.46,-82.17,26.63,1.66,-96.32
208.0811624547178,1.2505192229172337,140,3.718837545282213,-94.35051922,5.199999999999989,-9.05,-31.46,-82.17,26.63,1.66,-98.17
207.92639762518013,-11.66967429,140,2.273602374819859,-84.93032571,5.199999999999989,-9.14,-31.46,-82.17,26.63,1.66,-98.26
207.77163279564246,-24.5898678,140,2.428367204357528,-72.0101322,5.199999999999989,-9.14,-31.46,-82.17,26.63,1.66,-98.43
207.61686796610482,-37.51006132,140,2.5831320338951684,-59.08993868,5.199999999999989,-9.14,-31.46,-82.17,26.63,1.66,-98.61
207.46210313656715,-50.43025483,140,2.7378968634328373,-46.16974517,5.199999999999989,-9.14,-31.46,-82.17,26.63,1.66,-98.7
207.30733830702948,-63.35044834,140,2.992661692970529,-33.34955166,4.5,-9.14,-31.72,-82.08,26.63,1.66,-99.05
207.1525734774918,-76.27064185,140,3.147426522508198,-20.42935815,4.5,-9.14,-31.72,-82.08,26.63,1.66,-99.05
206.99780864795417,-89.19083537,140,3.2021913520458156,-7.809164634,4.5,-9.22,-31.72,-82.08,26.63,1.66,-99.22
204.6512502068863,104.17567031150912,140,0.44874979311370566,-0.275670312,9.900000000000006,42.8,-29.7,-82,24.34,0.35,-47.28
203.98056419087553,89.97334221208035,140,7.019435809124474,0.6266577879196404,9.099999999999994,37,-29.7,-82.96,26.01,0.79,-55.19
203.3098781748648,75.77101411265157,140,17.99012182513522,-15.87101411,8.199999999999989,29.17,-29.7,-83.93,27.5,0.79,-62.66
202.63919215885403,61.56868601322279,140,24.260807841145976,-30.46868601,7.400000000000006,21.97,-29.7,-84.72,28.74,0.79,-70.04
201.96850614284327,47.36635791379402,140,26.831493857156744,-46.36635791,6.900000000000006,14.41,-29.7,-85.51,29.53,0.79,-77.6
201.2978201268325,33.16402981436525,140,25.1021798731675,-61.26402981,5.5,6.85,-29.61,-86.57,30.93,0.87,-85.42
200.62713411082177,18.961701714936453,140,19.87286588917823,-76.86170171,5.5,-0.87,-29.61,-86.83,31.28,0.87,-93.25
199.956448094811,4.759373615507684,140,10.443551905188997,-91.85937362,5,-8.52,-29.61,-86.92,31.28,0.87,-100.28
199.28576207880025,-9.442954484,140,2.1142379211997593,-96.85704552,5,-11.95,-29.61,-87.01,31.28,0.87,-100.45
198.61507606278948,-23.64528258,140,2.1849239372105274,-82.95471742,4.599999999999994,-11.95,-29.53,-87.18,31.28,0.87,-100.45
197.94439004677875,-37.84761068,140,2.8556099532212613,-68.75238932,4.599999999999994,-11.95,-29.53,-87.18,31.28,0.87,-100.54
197.273704030768,-52.04993878,140,3.5262959692320237,-54.55006122,4.599999999999994,-11.95,-29.53,-87.18,31.28,0.87,-100.81
196.60301801475723,-66.25226688,140,4.196981985242786,-40.34773312,4.599999999999994,-11.95,-29.53,-87.18,31.28,0.87,-100.98
195.93233199874646,-80.45459498,140,4.8676680012535485,-26.14540502,4.599999999999994,-11.95,-29.53,-87.18,31.28,0.87,-101.07
195.26164598273573,-94.65692308,140,5.5383540172642824,-11.94307692,4.599999999999994,-11.95,-29.53,-87.18,31.28,0.87,-101.25
208.17884027119467,99.9898684547398,140,1.321159728805327,1.0101315452601938,8.099999999999994,41.48,-31.37,-80.59,25.13,0.35,-48.6
207.3192284704251,86.35543295382104,140,6.280771529574906,4.344567046178966,6.900000000000006,37.08,-31.37,-82,27.07,0.96,-55.72
206.45961666965547,72.72099745290228,140,16.44038333034453,-9.320997453,6,29.26,-31.37,-83.23,29,0.96,-63.1
205.6000048688859,59.086561951983505,140,23.299995131114116,-25.78656195,4.900000000000006,22.14,-31.37,-84.37,30.49,1.05,-70.22
204.7403930681163,45.45212645106474,140,25.85960693188369,-40.55212645,4,15.2,-31.28,-85.34,31.64,1.05,-77.43
203.8807812673467,31.817690950145973,140,23.91921873265332,-55.71769095,4.300000000000011,7.99,-30.14,-86.83,31.9,1.05,-84.46
203.0211694665771,18.183255449227204,140,17.8788305334229,-72.28325545,4.400000000000006,0.43,-29.35,-87.8,31.9,1.05,-92.02
202.16155766580752,4.548819948308434,140,8.738442334192484,-85.74881995,4.5,-6.76,-28.91,-88.33,31.9,1.05,-98.78
201.3019458650379,-9.085615553,140,1.1980541349620921,-91.21438445,4.5,-10.45,-28.91,-88.33,31.9,1.05,-99.22
200.44233406426832,-22.72005105,140,1.6576659357316714,-78.47994895,4.5,-10.54,-28.91,-88.33,31.9,1.05,-99.4
199.58272226349874,-36.35448655,140,2.5172777365012564,-64.84551345,4.5,-10.54,-28.91,-88.33,31.9,1.05,-99.49
198.72311046272912,-49.98892206,140,3.176889537270881,-51.21107794,4.300000000000011,-10.54,-28.91,-88.59,31.9,1.05,-99.75
197.86349866195954,-63.62335756,140,3.836501338040449,-37.47664244,3.8000000000000114,-10.54,-28.91,-88.59,31.9,1.05,-99.93
197.00388686118995,-77.25779306,140,4.696113138810034,-23.84220694,3.8000000000000114,-10.54,-28.91,-88.59,31.9,1.05,-100.01
196.14427506042034,-90.89222856,140,5.5557249395796475,-10.20777144,3.8000000000000114,-10.54,-28.91,-88.59,31.9,1.05,-100.1
199.02317611021948,94.65019488283531,140,-1.12317611,3.049805117164695,10.099999999999994,42.89,-25.04,-88.94,26.63,0.35,-48.16
199.29658781931406,81.16885806865432,140,5.203412180685945,3.931141931345678,8.099999999999994,37.17,-26.27,-88.94,28.38,0.96,-55.54
199.56999952840866,67.68752125447332,140,15.830000471591347,-11.28752125,7.400000000000006,29.17,-26.63,-88.94,29,0.96,-62.84
199.84341123750323,54.20618444029233,140,21.45658876249678,-26.40618444,5.900000000000006,21.44,-27.68,-88.33,29.26,1.05,-70.57
200.11682294659784,40.72484762611135,140,25.98317705340216,-40.72484763,5.800000000000011,14.06,-29,-86.66,29.35,1.05,-78.22
200.3902346556924,27.243510811930364,140,25.709765344307584,-56.94351081,5.699999999999989,6.32,-29.61,-85.69,29.35,1.05,-85.78
200.663646364787,13.762173997749358,140,19.636353635213,-73.862174,6.400000000000006,-1.23,-29.7,-85.42,29.35,1.05,-92.98
200.9370580738816,0.28083718356838006,140,11.562941926118413,-89.18083718,6.5,-8.52,-30.76,-83.93,29.35,1.05,-99.49
201.2104697829762,-13.20049963,140,5.189530217023815,-90.19950037,6.5,-10.81,-30.84,-83.84,29.35,1.05,-99.49
201.48388149207076,-26.68183644,140,5.1161185079292295,-76.41816356,6.5,-10.81,-30.84,-83.84,29.35,1.05,-99.66
201.75729320116537,-40.16317326,140,4.842706798834627,-62.93682674,6.5,-10.81,-30.84,-83.84,29.35,1.05,-99.84
202.03070491025994,-53.64451007,140,4.969295089740058,-49.65548993,7,-10.81,-31.02,-83.49,29.26,0.87,-100.72
202.30411661935455,-67.12584689,140,5.195883380645455,-36.27415311,6.900000000000006,-10.81,-31.2,-83.14,29.17,0.87,-100.81
202.57752832844912,-80.6071837,140,4.822471671550886,-22.7928163,6.800000000000011,-10.81,-31.2,-83.14,29,0.87,-100.81
202.85094003754372,-94.08852052,140,4.549059962456283,-9.311479484,6.699999999999989,-10.81,-31.2,-83.14,28.91,0.87,-100.81
193.28610747066753,100.63786717858859,140,0.7138925293324689,-0.437867179,9.099999999999994,44.12,-24.08,-91.49,28.74,0.35,-45.87
193.59351971910226,87.91456925976763,140,5.506480280897733,1.5854307402323684,9.099999999999994,38.67,-24.08,-91.49,28.74,0.61,-53.61
193.90093196753696,75.19127134094666,140,15.999068032463043,-15.29127134,9.099999999999994,30.49,-24.08,-91.49,28.74,0.52,-61.43
194.2083442159717,62.467973422125695,140,22.891655784028302,-30.76797342,7.699999999999989,22.93,-25.13,-91.49,30.49,0.7,-69.25
194.5157564644064,49.74467550330473,140,25.284243535593617,-46.7446755,7.699999999999989,15.55,-25.13,-91.49,30.49,0.7,-76.64
194.82316871284112,37.021377584483766,140,23.476831287158888,-62.52137758,7.699999999999989,8.17,-25.13,-91.49,30.49,0.7,-84.11
195.13058096127585,24.298079665662797,140,18.069419038724135,-77.69807967,7.699999999999989,0.7,-25.13,-91.49,30.49,0.7,-91.66
195.43799320971056,11.574781746841836,140,9.262006790289433,-91.57478175,7.699999999999989,-6.06,-25.13,-91.49,30.49,0.7,-95.09
195.74540545814529,-1.148516172,140,6.354594541854709,-85.05148383,7.699999999999989,-6.5,-25.13,-91.49,30.49,0.7,-95.27
196.05281770658,-13.87181409,140,6.047182293420008,-72.32818591,7.699999999999989,-6.5,-25.13,-91.49,30.49,0.7,-95.36
196.36022995501472,-26.59511201,140,5.739770044985278,-59.60488799,7.699999999999989,-6.5,-25.13,-91.49,30.49,0.7,-95.53
196.66764220344945,-39.31840993,140,5.432357796550548,-46.98159007,7.699999999999989,-6.5,-25.13,-91.49,30.49,0.61,-95.71
196.97505445188415,-52.04170785,140,5.124945548115846,-34.25829215,7.699999999999989,-6.5,-25.13,-91.49,30.49,0.61,-95.88
197.28246670031888,-64.76500577,140,5.0175332996811335,-21.53499423,7.900000000000006,-6.5,-25.13,-91.4,30.49,0.61,-96.06
197.58987894875358,-77.48830368,140,4.710121051246432,-8.911696315,7.900000000000006,-6.5,-25.13,-91.4,30.49,0.52,-96.15
192.37291248454278,103.7564050361381,140,0.12708751545721952,1.743594963861895,8.199999999999989,45.43,-24.87,-90.26,27.59,0.35,-45
193.45356398804515,90.09659223817141,140,5.346436011954864,4.603407761828592,6.599999999999994,40.25,-26.19,-90.17,29.61,1.31,-52.73
194.53421549154754,76.43677944020472,140,16.065784508452452,-6.03677944,5.199999999999989,32.95,-26.89,-90.17,30.67,1.31,-59.76
195.6148669950499,62.77696664223801,140,23.785133004950097,-18.87696664,5.199999999999989,25.75,-28.21,-88.5,30.67,1.31,-66.88
196.69551849855227,49.11715384427132,140,29.40448150144772,-31.31715384,5.099999999999994,18.72,-29.44,-86.92,30.67,1.31,-74
197.77617000205467,35.45734104630462,140,30.92382999794532,-44.85734105,4.900000000000006,11.6,-30.49,-85.51,30.67,1.31,-81.03
198.85682150555704,21.797528248337912,140,29.04317849444297,-59.49752825,4.800000000000011,4.48,-31.64,-84.11,30.67,1.4,-88.15
199.9374730090594,8.137715450371218,140,23.062526990940597,-73.83771545,4.900000000000006,-2.72,-31.99,-83.49,30.67,1.4,-95
201.0181245125618,-5.522097348,140,13.381875487438208,-85.67790265,6.099999999999994,-8.43,-31.99,-82.52,29.53,1.4,-97.64
202.09877601606416,-19.18191015,140,10.601223983935824,-76.51808985,6.599999999999994,-8.7,-31.99,-82.08,28.91,1.23,-97.64
203.17942751956653,-32.84172294,140,9.520572480433458,-62.85827706,6.5,-8.7,-31.99,-82.08,28.91,1.23,-97.82
204.26007902306893,-46.50153574,140,8.339920976931069,-49.19846426,6.400000000000006,-8.7,-31.99,-82.08,28.82,1.14,-97.91
205.3407305265713,-60.16134854,140,7.3592694734286965,-35.63865146,6.400000000000006,-8.7,-32.34,-81.12,27.5,1.05,-98.43
206.42138203007366,-73.82116134,140,7.478617969926347,-22.27883866,6.199999999999989,-8.7,-32.69,-80.33,27.15,0.96,-99.05
207.50203353357605,-87.48097414,140,6.397966466423952,-8.619025865,6.300000000000011,-8.7,-32.69,-80.33,27.07,0.96,-99.05
196.32785638909687,103.66378076015931,140,-1.127856389,0.8362192398406876,9.400000000000006,44.73,-25.57,-88.41,26.45,0.35,-45.87
196.96373421713,90.52176391994746,140,3.0362657828700037,4.578236080052534,8.400000000000006,40.07,-26.54,-88.41,27.5,0.7,-52.73
197.59961204516313,77.37974707973561,140,15.700387954836884,-8.87974708,6.699999999999989,32.25,-27.5,-88.41,29.53,0.7,-60.2
198.23548987319626,64.23773023952376,140,22.064510126803754,-22.93773024,6.599999999999994,25.13,-27.5,-88.33,29.53,0.79,-67.23
198.8713677012294,51.0957133993119,140,26.3286322987706,-37.1957134,6.699999999999989,17.92,-28.47,-86.92,29.53,0.79,-74.26
199.50724552926252,37.95369655910005,140,26.49275447073748,-51.85369656,7.199999999999989,10.81,-28.47,-86.83,29.53,0.79,-81.29
200.14312335729565,24.811679718888186,140,22.35687664270435,-66.61167972,7.199999999999989,3.69,-28.47,-86.83,29.53,0.79,-88.41
200.77900118532878,11.669662878676334,140,14.72099881467122,-81.06966288,7.199999999999989,-3.6,-28.56,-86.83,29.53,0.79,-95.27
201.41487901336188,-1.472353962,140,7.585120986638117,-86.12764604,6.800000000000011,-6.76,-28.65,-86.74,29.53,0.79,-95.8
202.050756841395,-14.6143708,140,6.7492431586049975,-73.2856292,6.800000000000011,-6.76,-28.65,-86.74,29.53,0.79,-95.97
202.68663466942814,-27.75638764,140,6.613365330571867,-60.24361236,7.5,-6.76,-29.09,-86.22,29.53,0.79,-96.32
203.32251249746128,-40.89840448,140,7.07748750253873,-47.20159552,7.199999999999989,-6.76,-29.26,-85.78,29.53,0.79,-97.29
203.9583903254944,-54.04042132,140,6.4416096745055995,-34.05957868,7.199999999999989,-6.76,-29.26,-85.78,29.53,0.79,-97.64
204.59426815352754,-67.18243816,140,5.805731846472469,-20.91756184,7.199999999999989,-6.76,-29.26,-85.78,29.53,0.79,-97.64
205.23014598156067,-80.324455,140,5.169854018439338,-7.775544997,7.199999999999989,-6.76,-29.26,-85.78,29.53,0.79,-97.64
197.95842338255383,106.86297349851301,140,0.541576617446168,0.5370265014869915,9.400000000000006,44.64,-27.86,-85.34,25.75,0.43,-45.52
198.1340392748774,92.70563715769795,140,6.165960725122602,5.29436284230205,7.199999999999989,39.99,-28.65,-85.34,27.33,1.14,-52.73
198.30965516720102,78.54830081688289,140,17.29034483279898,-6.448300817,7.199999999999989,32.6,-29,-85.34,27.86,1.14,-59.85
198.4852710595246,64.39096447606782,140,24.614728940475402,-20.19096448,7.199999999999989,25.31,-29,-85.34,27.86,1.14,-66.97
198.6608869518482,50.233628135252765,140,28.139113048151813,-34.03362814,7.199999999999989,18.19,-29,-85.34,27.86,1.14,-74.09
198.83650284417178,36.07629179443771,140,28.26349715582822,-48.07629179,7.199999999999989,11.16,-29,-85.34,27.86,1.14,-81.12
199.01211873649538,21.91895545362263,140,24.98788126350462,-61.81895545,6.800000000000011,4.04,-29.35,-85.25,27.94,1.23,-88.33
199.18773462881896,7.761619112807566,140,18.31226537118104,-74.86161911,6.300000000000011,-3.07,-29.35,-85.25,27.94,1.23,-95.36
199.36335052114256,-6.395717228,140,8.436649478857447,-86.50428277,6.300000000000011,-9.4,-29.35,-85.25,27.94,1.23,-99.22
199.53896641346614,-20.55305357,140,4.561033586533853,-80.24694643,6.300000000000011,-10.37,-29.35,-85.25,27.94,1.23,-99.31
199.71458230578975,-34.71038991,140,4.385417694210247,-66.08961009,6.300000000000011,-10.37,-29.35,-85.25,27.94,1.23,-99.4
199.89019819811332,-48.86772625,140,4.20980180188667,-51.93227375,6.300000000000011,-10.37,-29.35,-85.25,27.94,1.23,-99.58
200.06581409043693,-63.02506259,140,4.034185909563064,-37.77493741,6.300000000000011,-10.37,-29.35,-85.25,27.94,1.23,-99.66
200.2414299827605,-77.18239893,140,4.058570017239504,-23.61760107,5.900000000000006,-10.37,-29.53,-85.16,27.94,1.23,-100.28
200.4170458750841,-91.33973527,140,3.882954124915898,-9.460264727,5.900000000000006,-10.37,-29.53,-85.16,27.94,1.23,-100.28
201.36753109612943,96.67926896749785,140,1.1324689038705742,-0.979268967,8.599999999999994,41.66,-26.98,-86.83,26.36,0.35,-48.07
201.27171511882486,83.75703154600035,140,4.328284881175136,4.142968453999657,8,37.79,-26.98,-87.8,27.94,0.79,-55.28
201.17589914152032,70.83479412450286,140,13.824100858479682,-9.434794125,7.800000000000011,30.41,-26.98,-87.89,28.03,0.79,-62.4
201.08008316421575,57.912556703005365,140,19.91991683578425,-24.3125567,7.800000000000011,23.2,-26.98,-87.89,28.03,0.79,-69.52
200.9842671869112,44.99031928150787,140,22.51573281308879,-38.69031928,7.800000000000011,16.17,-26.98,-87.89,28.03,0.79,-76.64
200.88845120960664,32.06808186001038,140,21.71154879039335,-53.36808186,7.800000000000011,9.05,-26.98,-87.89,28.03,0.79,-83.84
200.79263523230208,19.14584443851288,140,17.507364767697936,-67.54584444,7.800000000000011,1.93,-26.98,-87.89,28.03,0.79,-91.05
200.69681925499754,6.2236070170153965,140,9.803180745002464,-81.62360702,7.800000000000011,-5.09,-26.98,-87.89,28.03,0.79,-96.94
200.60100327769297,-6.698630404,140,3.1989967223070437,-85.3013696,7.800000000000011,-7.99,-26.98,-87.89,28.03,0.79,-97.03
200.50518730038843,-19.62086783,140,3.294812699611583,-72.37913217,7.800000000000011,-7.99,-26.98,-87.89,28.03,0.79,-97.2
200.40937132308386,-32.54310525,140,3.390628676916151,-59.45689475,7.800000000000011,-7.99,-26.98,-87.89,28.03,0.79,-97.38
200.3135553457793,-45.46534267,140,3.486444654220719,-46.53465733,7.800000000000011,-7.99,-26.98,-87.89,28.03,0.79,-97.64
200.21773936847475,-58.38758009,140,3.5822606315252585,-33.61241991,7.800000000000011,-7.99,-26.98,-87.89,28.03,0.79,-97.73
200.12192339117018,-71.30981751,140,3.6780766088298265,-20.69018249,7.800000000000011,-7.99,-26.98,-87.89,28.03,0.79,-97.91
200.02610741386565,-84.23205493,140,3.773892586134366,-7.767945067,7.800000000000011,-7.99,-26.98,-87.89,28.03,0.7,-97.99
195.49227299161547,108.1793953554214,140,-0.392272992,3.4206046445785887,8.900000000000006,46.05,-27.33,-86.13,26.1,0.43,-44.73
195.95159688402694,94.53743331461614,140,5.948403115973065,4.162566685383865,8.900000000000006,40.34,-27.33,-86.13,26.1,0.79,-52.03
196.4109207764384,80.89547127381087,140,16.7890792235616,-9.895471274,8.599999999999994,32.78,-27.59,-86.13,26.19,0.79,-59.06
196.87024466884986,67.25350923300559,140,24.72975533115013,-22.65350923,8.099999999999994,25.66,-28.12,-86.13,27.68,0.79,-66.26
197.3295685612613,53.611547192200334,140,28.070431438738694,-36.81154719,8.099999999999994,18.54,-28.12,-86.13,27.68,0.79,-73.12
197.7888924536728,39.969585151395066,140,27.9111075463272,-51.46958515,8.099999999999994,11.42,-28.12,-86.13,27.68,0.79,-80.33
198.24821634608423,26.327623110589784,140,24.35178365391576,-65.72762311,8.099999999999994,4.3,-28.12,-86.13,27.68,0.79,-87.36
198.7075402384957,12.685661069784516,140,16.892459761504284,-80.68566107,8.099999999999994,-3.25,-28.12,-86.13,27.68,0.87,-94.74
199.16686413090716,-0.956300971,140,8.033135869092831,-89.44369903,8.099999999999994,-8.08,-28.12,-86.13,27.68,0.87,-96.67
199.62618802331863,-14.59826301,140,6.373811976681367,-78.30173699,8.099999999999994,-8.17,-28.12,-86.48,27.77,0.87,-96.67
200.08551191573008,-28.24022505,140,5.614488084269908,-64.55977495,7.300000000000011,-8.17,-28.12,-86.66,28.21,0.87,-97.03
200.54483580814156,-41.88218709,140,5.155164191858432,-50.91781291,7.300000000000011,-8.17,-28.12,-86.66,28.21,0.87,-97.2
201.004159700553,-55.52414913,140,4.695840299446985,-37.27585087,7.300000000000011,-8.17,-28.12,-86.66,28.21,0.87,-97.38
201.46348359296448,-69.16611118,140,4.236516407035509,-23.73388882,6.300000000000011,-8.17,-28.38,-86.66,28.21,0.87,-97.73
201.92280748537593,-82.80807322,140,3.8771925146240847,-10.09192678,6.400000000000006,-8.17,-28.38,-86.66,28.3,0.87,-97.73
204.19756874115086,99.67357345753815,140,1.0024312588491284,1.0264265424618486,9.099999999999994,42.18,-29.17,-83.23,25.31,0.26,-47.98
204.48274461287136,86.43773562420523,140,5.617255387128637,3.662264375794763,8.5,37.35,-29.79,-83.23,25.66,1.4,-55.54
204.76792048459185,73.20189779087231,140,16.432079515408134,-8.701897791,6.699999999999989,30.05,-30.67,-83.23,27.77,1.58,-62.66
205.05309635631235,59.96605995753937,140,22.546903643687642,-23.66605996,6.800000000000011,22.85,-30.67,-83.23,27.68,1.58,-69.69
205.33827222803285,46.730222124206456,140,24.961727771967162,-39.03022212,6.699999999999989,15.73,-30.67,-83.23,27.77,1.58,-76.9
205.62344809975335,33.494384290873526,140,24.176551900246665,-54.19438429,5.699999999999989,8.7,-31.02,-83.14,27.77,1.58,-84.02
205.90862397147384,20.25854645754059,140,19.49137602852616,-69.25854646,5.699999999999989,1.58,-31.02,-83.14,27.77,1.58,-91.23
206.19379984319434,7.022708624207667,140,11.306200156805659,-83.92270862,5.699999999999989,-5.62,-31.02,-83.14,27.77,1.58,-97.2
206.4789757149148,-6.213129209,140,4.621024285085184,-86.78687079,5.400000000000006,-8.26,-31.2,-82.79,27.77,1.66,-97.55
206.7641515866353,-19.44896704,140,5.035848413364704,-73.95103296,5.5,-8.26,-31.46,-82.61,27.77,1.66,-97.82
207.0493274583558,-32.68480488,140,4.750672541644207,-60.71519512,5.5,-8.26,-31.46,-82.61,27.77,1.66,-97.91
207.3345033300763,-45.92064271,140,4.465496669923709,-47.47935729,5.5,-8.26,-31.46,-82.61,27.77,1.66,-97.91
207.6196792017968,-59.15648054,140,4.180320798203212,-34.24351946,5.5,-8.26,-31.46,-82.35,27.77,1.66,-98.17
207.9048550735173,-72.39231838,140,4.495144926482709,-21.10768162,5.5,-8.26,-31.81,-82.08,27.77,1.66,-98.87
208.1900309452378,-85.62815621,140,4.509969054762195,-7.971843791,5.900000000000006,-8.26,-31.81,-82,27.77,1.66,-99.66
204.4680305257165,109.76633278746044,140,0.13196947428349404,-0.366332787,10.400000000000006,43.94,-30.76,-79.45,22.06,0.26,-45.87
203.74815068888321,95.92909685603328,140,4.651849311116791,5.370903143966714,9.099999999999994,39.99,-30.76,-81.73,26.19,0.79,-53.17
203.02827085204993,82.09186092460612,140,16.17172914795006,-8.291860925,7.699999999999989,32.51,-30.76,-83.23,28.3,0.79,-60.38
202.30839101521664,68.25462499317896,140,25.48,-30.76,-84.9,30.58,0.79,-67.5,,,
201.58851117838338,54.41738906175181,140,27.611488821616604,-38.01738906,4.699999999999989,18.19,-30.67,-86.57,32.95,0.79,-75.05
200.8686313415501,40.58015313032466,140,27.6313686584499,-53.78015313,3.4000000000000057,10.89,-30.58,-88.15,35.06,0.87,-82.61
200.1487515047168,26.742917198897487,140,3.33,-28.91,-90.26,35.33,0.87,-89.91,,,
199.42887166788353,12.905681267470342,140,12.971128332116479,-84.40568127,4.5,-4.57,-28.03,-91.31,35.33,0.87,-97.2
198.70899183105024,-0.931554664,140,4.891008168949753,-91.56844534,5.400000000000006,-8.43,-27.59,-91.4,35.33,0.87,-97.47
197.98911199421696,-14.7687906,140,5.310888005783056,-78.4312094,5.400000000000006,-8.34,-27.59,-91.4,35.33,0.79,-97.38
197.26923215738367,-28.60602653,140,5.930767842616319,-64.59397347,5.300000000000011,-8.34,-27.59,-91.4,35.24,0.79,-97.64
196.54935232055038,-42.44326246,140,6.650647679449605,-50.75673754,5.199999999999989,-8.34,-27.59,-91.4,35.15,0.79,-97.73
195.82947248371713,-56.28049839,140,6.270527516282868,-36.81950161,5.599999999999994,-8.34,-26.71,-92.02,34.27,0.7,-97.91
195.10959264688384,-70.11773432,140,5.690407353116171,-22.78226568,5.300000000000011,-8.34,-26.45,-92.37,34.18,0.7,-97.99
